X: 1
T: Piper Of Drummons, The
M: 4/4
L: 1/8
R: reel
K: Dmaj
A |: d2 fe d2 AB|d2 (fe) fBBc|d2 fe d2 AB|d2 (dB) AAAB :|
|: d2 fB B2 fB|d2 (fe) fBBc|d2 fB B2 fB|d2 (dB) AAAB|
d2 fB B2 fB|d2 (fe) fBBc|d2 fe d2 AB|1 d2 (dB) AAAB :|2 d2 (dB) AA A2||
